X:1
T:Stratford
%%score [ 1 2 3 4 ]
L:1/8
M:3/2
K:D
V:1 treble nm="Soprano" snm="S"
V:2 alto nm="Alto" snm="A"
V:3 treble-8 nm="Tenor" snm="T"
V:4 bass nm="Bass" snm="B"
V:1
 z4 z4[Q:1/4=132]"^Allegro" A4 | A8 A4 | A8 d4 | d8 (e2 d2) | c8 A4 | A8 (c2 A2) | (A4 B4) G4 | %7
 A8 A4 | A8 F4 | F8 d4 | c8 A4 | A4 F8 | F8 D4 | A8 d4 | d8 d4 | (B6 A2) G4 | A8 A4 | d8 A4 | %18
 F8 A4 | d8 (e2 d2) | c8 A4 | A8 F4 | B8 A4 | A4 A8 | A12 |] %25
V:2
 z4 z4 D4 | F8 E4 | (D4 E4) F4 | (F3 E D4) E4 | E8 F4 | D8 C4 | D8 D4 | (G4 F4) E4 | F8 F4 | %9
 D8 (F2 E2) | E8 D4 | D4 C8 | D8 F4 | F8 F4 | F8 F4 | D8 A4 | A8 F4 | F8 (F2 G2) | A8 F4 | D8 E4 | %20
 E8 F4 | F8 A4 | G8 (F2 E2) | D4 E8 | F12 |] %25
V:3
 z4 z4 A4 | d8 f4 | (f4 e4) d4 | (A4 B2 A2) (G2 F2) | A8 A4 | F8 A4 | d8 f4 | (e4 d4) c4 | d8 D4 | %9
 D8 (F2 G2) | A8 d4 | B4 ^A8 | B8 d4 | (d4 c4) B4 | B8 A4 | (B6 c2) d4 | c8 A4 | F8 E4 | D8 A4 | %19
 B8 ^G4 | A8 (F2 G2) | A8 (B2 c2) | d8 (d2 e2) | f4 e8 | d12 |] %25
V:4
 z4 z4 D,4 | D,8 A,4 | (D4 C4) B,4 | (A,4 G,2 F,2) (E,2 D,2) | A,,8 A,,4 | D,8 E,4 | %6
 (F,4 G,4) E,4 | (F,3 G, A,4) A,,4 | D,8 D,4 | B,,8 B,,4 | A,,8 B,,4 | E,4 F,8 | B,,8 B,,4 | %13
 E,8 F,4 | B,8 A,4 | (G,6 F,2) (E,2 D,2) | A,,8 A,4 | A,8 A,4 | A,8 D,4 | D,8 E,4 | A,,8 D,4 | %21
 D,8 D,4 | D,8 B,,4 | A,4 A,,8 | D,12 |] %25

